assets/images/ywc18/media-partners/ExxonMobil.svg

<svg width="156" height="31" viewBox="0 0 156 31" fill="none" xmlns="http://www.w3.org/2000/svg">
<path fill-rule="evenodd" clip-rule="evenodd" d="M79.3954 0.22998H86.868L90.3958 16.268H90.5545L94.1704 0.22998H101.431V22.2026H96.9849V5.61168H96.7828L92.8667 22.2026H87.872L84.0455 5.61168H83.8432V22.2026H79.3954V0.22998ZM0.420898 0.22998H14.3197V4.32401H5.14862V8.87884H13.9071V12.8531H5.14862V18.1019H14.3197V22.2026H0.420898V0.22998ZM20.6702 22.2026L25.4316 15.83L28.4027 18.9595L21.6056 27.8205H26.9237L31.2756 21.9495L39.4663 30.6266H45.8844L34.1134 18.304L43.3831 6.10907H38.0642L31.2127 15.2661L28.2468 12.1652L35.8678 2.17044H30.5611L25.3581 9.1435L22.5309 6.10907H16.2007L22.5773 12.8113L15.3711 22.2026H20.6702ZM127.564 22.2026L127.612 20.9643C127.931 21.2154 129.347 22.5709 132.311 22.5709C136.208 22.5709 139.824 18.9359 139.824 14.1579C139.824 9.37059 136.43 5.73565 132.363 5.73565C129.253 5.73565 127.83 7.21948 127.612 7.38495V0.22998H123.218V22.2026H127.564ZM135.184 14.1464C135.184 16.4156 133.513 18.1788 131.324 18.1788C129.111 18.1788 127.449 16.4215 127.449 14.1579C127.449 11.8666 129.133 10.1277 131.329 10.1277C133.535 10.1277 135.184 11.8823 135.184 14.1464ZM150.605 0.22998H155.187V21.1334V22.2026H150.605V0.22998ZM142.491 4.3245H147.072V0.22998H142.491V4.3245ZM142.491 6.10907H147.072V21.1334V22.2026H142.491V6.10907ZM42.0136 14.1574C42.0136 18.7997 45.5861 22.5701 50.261 22.5701C54.9369 22.5701 58.5085 18.7997 58.5085 14.1574C58.5085 9.51544 54.9369 5.73615 50.261 5.73615C45.5861 5.73615 42.0136 9.51544 42.0136 14.1574ZM46.4746 14.1572C46.4746 11.9319 48.0707 10.1046 50.2898 10.1046C52.5096 10.1046 54.1062 11.9319 54.1062 14.1572C54.1062 16.3817 52.5096 18.21 50.2898 18.21C48.0707 18.21 46.4746 16.3817 46.4746 14.1572ZM104.077 14.1557C104.077 18.7982 107.65 22.5682 112.324 22.5682C117 22.5682 120.572 18.7977 120.572 14.1557C120.572 9.51372 117 5.73443 112.324 5.73443C107.65 5.73443 104.077 9.51372 104.077 14.1557ZM108.538 14.1552C108.538 11.9297 110.134 10.1029 112.353 10.1029C114.573 10.1029 116.17 11.9297 116.17 14.1552C116.17 16.3797 114.573 18.208 112.353 18.208C110.134 18.208 108.538 16.3797 108.538 14.1552ZM61.032 6.10907H65.3112V7.63095C65.7708 7.21334 67.254 5.73418 69.9939 5.73418C73.2177 5.73418 75.778 8.21402 75.778 12.1053V22.2026H71.2573V13.3554C71.2573 11.1866 70.2432 9.90014 68.4042 9.90014C66.6213 9.90014 65.5499 11.1124 65.5499 13.3554V22.2026H61.032V6.10907Z" fill="#FE000C"/>
</svg>

<svg width="156" height="31" fill="none" xmlns="http://www.w3.org/2000/svg"><path fill-rule="evenodd" clip-rule="evenodd" d="M79.4.23h7.47l3.53 16.04h.15L94.17.23h7.26V22.2h-4.45V5.61h-.2l-3.91 16.6h-5L84.05 5.6h-.2v16.6H79.4V.22zM.42.23h13.9v4.1H5.15v4.55h8.76v3.97H5.15v5.25h9.17v4.1H.42V.23zM20.67 22.2l4.76-6.37 2.97 3.13-6.8 8.86h5.32l4.36-5.87 8.19 8.68h6.41L34.11 18.3l9.27-12.2h-5.32l-6.85 9.17-2.96-3.1 7.62-10h-5.3l-5.21 6.97-2.83-3.03H16.2l6.38 6.7-7.2 9.4h5.29zm106.9 0l.04-1.24c.32.26 1.74 1.61 4.7 1.61 3.9 0 7.51-3.63 7.51-8.41 0-4.79-3.39-8.42-7.46-8.42-3.1 0-4.53 1.48-4.75 1.64V.23h-4.4V22.2h4.35zm7.61-8.05a3.89 3.89 0 01-3.86 4.03 3.88 3.88 0 01-3.87-4.02c0-2.3 1.68-4.03 3.88-4.03s3.85 1.75 3.85 4.02zM150.6.23h4.59V22.2h-4.59V.23zm-8.1 4.1h4.57V.22h-4.58v4.1zm0 1.78h4.57V22.2h-4.58V6.1zM42 14.16a8.26 8.26 0 008.25 8.41 8.26 8.26 0 008.25-8.41 8.26 8.26 0 00-8.25-8.42 8.27 8.27 0 00-8.25 8.42zm4.46 0c0-2.23 1.6-4.06 3.82-4.06 2.22 0 3.82 1.83 3.82 4.06 0 2.22-1.6 4.05-3.82 4.05-2.22 0-3.82-1.83-3.82-4.05zm57.6 0a8.26 8.26 0 008.25 8.4 8.26 8.26 0 008.25-8.4 8.26 8.26 0 00-8.25-8.43 8.27 8.27 0 00-8.24 8.43zm4.47 0c0-2.23 1.6-4.06 3.81-4.06 2.22 0 3.82 1.83 3.82 4.06 0 2.22-1.6 4.05-3.82 4.05-2.22 0-3.81-1.83-3.81-4.05zM61.04 6.1h4.27v1.52c.46-.42 1.94-1.9 4.68-1.9 3.23 0 5.79 2.48 5.79 6.38v10.1h-4.52v-8.85c0-2.17-1.02-3.46-2.86-3.46-1.78 0-2.85 1.21-2.85 3.46v8.84h-4.52V6.1z" fill="#FE000C"/></svg>
